dist/img/about-training/icon-2.svg

<svg width="38" height="49" viewBox="0 0 38 49" fill="none" xmlns="http://www.w3.org/2000/svg">
<path d="M10.0911 28.8236C10.0911 33.5919 13.9709 37.4707 18.7405 37.4707C23.51 37.4707 27.3898 33.5919 27.3898 28.8236V23.0589H10.0911V28.8236ZM17.2989 27.3825C17.2989 26.5858 17.9436 25.9413 18.7405 25.9413C19.5373 25.9413 20.1821 26.586 20.1821 27.3825V33.1473C20.1821 33.9438 19.5373 34.5884 18.7405 34.5884C17.9436 34.5884 17.2989 33.9438 17.2989 33.1473V27.3825ZM24.5066 17.3799C24.5066 14.1542 21.8825 11.5293 18.6559 11.5293C15.5222 11.5293 12.9742 14.0766 12.9742 17.2081V20.1764H24.5066V17.3799ZM36.039 5.76462C30.4981 5.76462 27.9387 4.47115 21.7558 1.34682L19.3851 0.15199C18.9796 -0.0506633 18.501 -0.0506633 18.0955 0.15199L15.7248 1.34682C9.5419 4.47131 6.98269 5.76462 1.44161 5.76462C0.64479 5.76462 0 6.40925 0 7.20575V27.3823C0 45.6857 18.3178 48.9494 18.5036 48.9804C18.5824 48.993 18.6613 49 18.7401 49C18.819 49 18.8979 48.993 18.9767 48.9804C19.1625 48.9494 37.4803 45.6857 37.4803 27.3823V7.20591C37.4806 6.40925 36.8358 5.76462 36.039 5.76462ZM30.2729 28.8236C30.2729 35.1808 25.1008 40.3531 18.7405 40.3531C12.3802 40.3531 7.20806 35.181 7.20806 28.8236V21.6176C7.20806 20.821 7.85285 20.1765 8.64967 20.1765H10.0913V17.2083C10.0913 12.4879 13.9346 8.64704 18.6561 8.64704C23.4706 8.64704 27.3898 12.5653 27.3898 17.3799V20.1764H28.8314C29.6282 20.1764 30.273 20.821 30.273 21.6175V28.8236H30.2729Z" fill="#006CFF"/>
</svg>

<svg width="38" height="49" viewBox="0 0 38 49" fill="none" xmlns="http://www.w3.org/2000/svg"><path d="M10.091 28.824c0 4.768 3.88 8.647 8.65 8.647 4.769 0 8.649-3.88 8.649-8.647v-5.765h-17.3v5.765zm7.208-1.442a1.44 1.44 0 112.883 0v5.765a1.44 1.44 0 11-2.883 0v-5.764zm7.208-10.002a5.857 5.857 0 00-5.851-5.85 5.686 5.686 0 00-5.682 5.678v2.968h11.533V17.38zM36.039 5.765c-5.54 0-8.1-1.294-14.283-4.418L19.386.152a1.444 1.444 0 00-1.29 0l-2.371 1.195C9.542 4.47 6.983 5.765 1.442 5.765A1.44 1.44 0 000 7.205v20.177C0 45.686 18.318 48.95 18.504 48.98a1.497 1.497 0 00.473 0c.186-.03 18.503-3.294 18.503-21.598V7.206a1.44 1.44 0 00-1.441-1.441zm-5.766 23.059c0 6.357-5.172 11.53-11.532 11.53S7.208 35.18 7.208 28.823v-7.206a1.44 1.44 0 011.442-1.441h1.441v-2.969c0-4.72 3.844-8.561 8.565-8.561 4.815 0 8.734 3.918 8.734 8.733v2.796h1.441a1.44 1.44 0 011.442 1.442v7.206z" fill="#006CFF"/></svg>
